icons/filter-outline.svg

<svg xmlns="http://www.w3.org/2000/svg" width="24" height="24" viewBox="0 0 24 24">
    <path fill="#3A3A47" fill-rule="evenodd" d="M13.5 12v5.243l-2 .75V12L8.002 6h8.936L13.5 12zM8.002 4C6.45 4 5.49 5.696 6.288 7.029L9.505 13v5.027c.034.696.3 1.227.799 1.592.498.366 1.11.467 1.837.305l1.965-.66c.418-.156.74-.39.966-.701.226-.31.358-.71.398-1.196V13l3.182-5.971c.8-1.333-.16-3.029-1.714-3.029H8.002z"/>
</svg>

<svg width="24" height="24" viewBox="0 0 24 24" fill="none" xmlns="http://www.w3.org/2000/svg">
<path d="M13.5 12V17.243L11.5 17.993V12L8.002 6H16.938L13.5 12ZM8.002 4C6.45 4 5.49 5.696 6.288 7.029L9.505 13V18.027C9.539 18.723 9.805 19.254 10.304 19.619C10.802 19.985 11.414 20.086 12.141 19.924L14.106 19.264C14.524 19.108 14.846 18.874 15.072 18.563C15.298 18.253 15.43 17.853 15.47 17.367V13L18.652 7.029C19.452 5.696 18.492 4 16.938 4H8.002Z" fill="#3A3A47"/>
</svg>
